X:8267
T:Scarce of Tatties
C:anon.
O:Scotland
Z:Transcribed by Jack Campin
F:http://abc.musicaviva.com/tunes/scotland/scarce-of-tatties.abc
%Posted December 16th 2001 at abcusers by Jack Campin.
M:6/8
L:1/8
K:A Mix
A>ee e>fg|e>dB d>BG|A>ee e>fg|e>dB A3 |
a>aa g>ag|f>gf e>AA|A>ee e>fg|e>dB A3:|
a>ea a2e |g2f  e>AA|a>ea a2e |g>af e3 |
e>ee A>AA|d2f  f>ee|A>ee e>fg|e>dB A3:|
W:
W:
W:  From Musica Viva - http://www.musicaviva.com
W:  the Internet center for free sheet music downloads.

